src/assets/header-icons/calendar.svg

<svg xmlns="http://www.w3.org/2000/svg" viewBox="0 0 24 24" width="18" height="18" fill="rgba(58,58,156,1)"><path d="M9 1V3H15V1H17V3H21C21.5523 3 22 3.44772 22 4V20C22 20.5523 21.5523 21 21 21H3C2.44772 21 2 20.5523 2 20V4C2 3.44772 2.44772 3 3 3H7V1H9ZM20 11H4V19H20V11ZM8 14V16H6V14H8ZM18 14V16H10V14H18ZM7 5H4V9H20V5H17V7H15V5H9V7H7V5Z"></path></svg>

<svg xmlns="http://www.w3.org/2000/svg" width="18" height="18" fill="rgba(58,58,156,1)" viewBox="0 0 24 24"><path d="M9 1v2h6V1h2v2h4a1 1 0 0 1 1 1v16a1 1 0 0 1-1 1H3a1 1 0 0 1-1-1V4a1 1 0 0 1 1-1h4V1zm11 10H4v8h16zM8 14v2H6v-2zm10 0v2h-8v-2zM7 5H4v4h16V5h-3v2h-2V5H9v2H7z"/></svg>
